X:502
%%etbk:tnset id:246,pos:3,rep:3x,ant:
%%etbk:wsite http://thesession.org/tunes/458
%%etbk:video src:ytube,cde:wEIcEXK1Rck,desc:second tune
%%etbk:color #ffe6e6
%%etbk:pldat 2015-12-29T16:37,2015-12-22T17:40,2015-09-30T15:56,2015-08-16T15:18,2015-08-11T15:45,2015-07-29T17:08,2015-07-24T18:24,2015-07-17T09:34,2015-07-15T17:57,2015-05-31T12:09,2015-05-27T19:02,2015-04-22T16:34,2015-04-21T16:15,2015-03-23T18:44,2015-03-04T17:41,2015-02-17T17:26,2015-02-10T17:59,2015-02-02T18:56,2015-01-29T18:08,2015-01-27T17:18,2015-01-26T19:03,2015-01-22T19:00,2015-01-18T14:10,2015-01-17T14:58,2015-01-13T17:56,2015-01-07T17:23,2015-01-06T19:24,2015-01-05T19:35,2014-12-31T15:38,2014-12-30T17:41,2014-12-29T17:05,2014-09-09T18:32,2014-05-05T19:17,2014-05-02T18:07,2014-04-12T15:29,2014-04-09T17:54,2014-03-26T17:13,2014-03-25T16:21,2014-03-18T17:15,2014-02-27T18:47,2014-02-20T19:29,2014-02-15T17:11,2014-02-12T18:55,2014-02-08T13:24,2014-02-07T17:18,2014-02-05T16:28,2013-11-21T18:44,2013-11-17T14:56,2013-11-16T15:44,2013-11-12T18:27,2013-11-11T18:14,2013-11-10T15:45,2013-10-03T19:07,2013-10-02T15:55,2013-09-16T15:18
T:Five Mile Chase, The
Z: Piano Box Version by Martin Fleischmann
H: Created 2013-09-10 /  Last Modified 2014-12-18
R:reel
M:4/4
K:Gmaj
|:"G"!1!G2!2!BG !4!dGB!1!G | "D"!2!F!4!A!1!DA FADA | "G"!1!G2!2!BG !4!dG !2!(3Bc!4!d|1 "D"!2!egf!5!a ge!1!d!2!B:||2 "D"!2!egf!5!a "G"!4!g3f||
"G"!4!g!2!d!1!Bd !3!edB!2!d|!4!g2!2!d!4!g "D"!3!f!5!aa!3!f | "G"!4!g!2!d!1!Bd !3!edBd | "D"!3!e!4!g!3!f!5!a "G"!4!!3!g3!2!f|
"G"!3!g2!5!bg !2!efge|!1!ded!3!c !2!B!3!c!4!d2 | "C"!3!e3f !3!e!1!B!2!dB | "D"!2!egf!5!a !4!ge!1!d!2!B||


